X: 21742
Q: "Lively."
M: 6/8
L: 1/8
K: A
|:\
E>FG A2f | e>dc {c}B2A |\
E>FG A2f | e>dc {c}B2A |]\
c>de ef=g | fdf ecA |
c>de ef=g | f^ge Ha2z |\
E>FA A2f | {f/}e<dc {c}B2A :|


